icon-themes/sifr_svg/cmd/lc_dbformdelete.svg

<svg viewBox="0 0 24 24" xmlns="http://www.w3.org/2000/svg"><path d="m3 1c-.554 0-1 .446-1 1v19c0 .554.446 1 1 1h10v-2h-8v-2h8v-1h-8v-2h8v-1h-8v-2h14v1h3v-11c0-.554-.446-1-1-1zm2 2h13v2h-13zm0 3h14v2h-14zm0 3h14v2h-14zm10.1875 5c-.662698 0-1.1875.548988-1.1875 1.21875v6.5625c0 .669759.524802 1.21875 1.1875 1.21875h6.8125c.662699 0 1-.548991 1-1.21875v-6.5625c0-.669762-.337286-1.21875-1-1.21875zm-.1875 1h1l2.5 2.5 2.5-2.5h1v1l-2.5 2.5 2.5 2.339844v1h-1l-2.5-2.339844-2.5 2.5h-1v-1l2.5-2.5-2.5-2.5z" fill="#555753"/></svg>

<svg xmlns="http://www.w3.org/2000/svg" viewBox="0 0 24 24">
  <path
     style="fill:#555753"
     d="M 3 1 C 2.446 1 2 1.446 2 2 L 2 21 C 2 21.554 2.446 22 3 22 L 13 22 L 13 20 L 5 20 L 5 18 L 13 18 L 13 17 L 5 17 L 5 15 L 13 15 L 13 14 L 5 14 L 5 12 L 19 12 L 19 13 L 22 13 L 22 2 C 22 1.446 21.554 1 21 1 L 3 1 z M 5 3 L 18 3 L 18 5 L 5 5 L 5 3 z M 5 6 L 19 6 L 19 8 L 5 8 L 5 6 z M 5 9 L 19 9 L 19 11 L 5 11 L 5 9 z M 15.1875 14 C 14.524802 14 14 14.548988 14 15.21875 L 14 21.78125 C 14 22.451009 14.524802 23 15.1875 23 L 22 23 C 22.662699 23 23 22.451009 23 21.78125 L 23 15.21875 C 23 14.548988 22.662714 14 22 14 L 15.1875 14 z M 15 15 L 16 15 L 18.5 17.5 L 21 15 L 22 15 L 22 16 L 19.5 18.5 L 22 20.839844 L 22 21.839844 L 21 21.839844 L 18.5 19.5 L 16 22 L 15 22 L 15 21 L 17.5 18.5 L 15 16 L 15 15 z "
     />
</svg>
